X:1
T:Questa e colei
T:Questa e colei
T:Francesca Caccini
T:Source : Primo libro delle Musische a 1 e 2 voci---Firenze---Z.Pignoni---1618. Editor : André Vierendeels (27/08/15).
T:Notes : Original clefs : C1, F4 Figures in BC are notated in original print See also part 1 : "Chi e costei", p 3 :"Pregiato Deus" and p 4 :"Cosi dicea" 
T:Sonetto 2, part 2
C:Francesca Caccini
%%score 1 2
L:1/8
Q:1/4=85
M:4/4
K:F
V:1 treble nm="Soprano" snm="S"
V:2 bass nm="BC" snm="BC"
V:1
 z2 A4 A>B | c4 z2 c2 | d4 A>B c/B/B/A/ | B4 B z/ A/ G/F/G/A/ | G/A/4B/4c/4d/4_e z/ c/c/ c4 | %5
w: Que- sta'e co-|lei che'l|Cie- lo'ar- * * * * *||* * * * * * d'e'in- na- mo-|
 B4 z2 FF | G>A B2 TA3 G | .G4 G2 z B | c3 d Td4 | c3 G c4 | z2 c2 c4 | c4 B3 A | A>B c>d B>c d2- | %13
w: ra e con|un _ _ de be-|gl'oc- chi il|Cor sa- et-|ta d'id- dio|ma- gion|so- vra quei|mon- * * * * * *|
 d2 G2 A4 | A2 A4 A z | A/B/A/A/ TA>G .F/D/E/F/ G/A/B/c/ | d4 z AAB | c6 G2 | G8 | F4 z2 G2 | %20
w: * ti'e- ret-|ta San- ti|ch'an- * * * cor _ _ _ _ _ _ _ _ _|_ l'e ter- ni-|ta- de'o-|no-|ra, ch'an-|
 A2 TG/G/F/E/ F/G/A/B/ c/A/B/c/ | d/c/d/_e/ Tdc/B/ A/G/A/E/ F/G/A/B/ | c4 z GGA | B6 G2 | G8 | %25
w: cor _ _ _ _ _ _ _ _ _ _ _ _|_ _ _ _ _ _ _ _ _ _ _ _ _ _ _|* l'e- ter- ni-|ta- de'o-|no-|
 F8 |] %26
w: ra|
V:2
"^-natural" F,4 D,4 |"^11   10   6" C,2 C,2 A,,4 | B,,4 ^F,,4 | G,,2 D,2 _E,4- | E,4 F,2 F,,2 | %5
"^4      10" B,,4 B,2 A,2 |"^b""^#6""^(#)" G,3 G, F,2 D,2 | _E,4 E,4 | %8
"^4""^#10""^(-natural)" E,2 F,2 G,2 G,,2 | C,4 C2 B,2 |"^6" A,2 G,F, E,2 F,2 | %11
"^6" C,2 A,,2 B,,2 C,2 | F,,4 D,4- |"^6""^#" D,2 _E,2 D,4 | D,4 ^F,2 ^F,,2 | G,,2 A,,2 B,,4 | %16
"^-natural" B,,2 C,2 D,4 |"^6" A,,2 B,,2 C,2 =B,,2 |"^11      10" C,8 |"^6" F,,4 E,,4 | %20
"^6" F,,2 G,,2 A,,4 | B,,2 C,2 D,4 |"^6" A,,2 B,,2 C,4 | G,,2 A,,2 B,,4 |"^11    10" C,8 | F,,8 |] %26

